Obsidian/status/16s/gsm-3g-high-secure.svg

<svg height="16" width="16" xmlns="http://www.w3.org/2000/svg"><g fill="#d3dae3"><path d="m15 1.01-14 14h8v-4h1.014c.019-1.64 1.342-3 2.986-3 .774 0 1.471.31 2 .8z" opacity=".3"/><path d="m12 4.01-11 11h8v-4h1.014c.015-1.29.839-2.4 1.986-2.82z"/><path d="m13 9c-1.108 0-2 .91-2 2.03v.97h-1v4h6v-4h-1v-.97c0-1.12-.892-2.03-2-2.03zm0 1c.554 0 1 .44 1 1v1h-2v-1c0-.56.446-1 1-1z"/></g></svg>

<svg xmlns="http://www.w3.org/2000/svg" width="16" height="16" version="1.1">
 <defs>
  <style id="current-color-scheme" type="text/css">
   .ColorScheme-Text { color:#d3dae3; } .ColorScheme-Highlight { color:#5294e2; }
  </style>
 </defs>
 <path style="opacity:0.3;fill:currentColor" class="ColorScheme-Text" d="M 15,1.01 1,15.01 H 9 V 11.01 H 10.014 C 10.033,9.37 11.356,8.01 13,8.01 13.774,8.01 14.471,8.32 15,8.81 Z"/>
 <path style="fill:currentColor" class="ColorScheme-Text" d="M 12,4.01 1,15.01 H 9 V 11.01 H 10.014 C 10.029,9.72 10.853,8.61 12,8.19 Z"/>
 <path style="fill:currentColor" class="ColorScheme-Text" d="M 13,9 C 11.892,9 11,9.91 11,11.03 V 12 H 10 V 16 H 16 V 12 H 15 V 11.03 C 15,9.91 14.108,9 13,9 Z M 13,10 C 13.554,10 14,10.44 14,11 V 12 H 12 V 11 C 12,10.44 12.446,10 13,10 Z"/>
</svg>
